X: 35793
T: Sally's
R: jig
M: 6/8
K: Gmajor
|:A|BGB AGA|B2G D2D|E2A ABA|E2A AGA|
BGB AGA|B2G D2D|EAG FEF|G3 G2:|
|:A|Bdd Bdg|e2d B2G|E2A ABA|E2A AGA|
Bdd Bdg|e2d B2G|EAG FEF|G3 G2:|

